X:9
T:Bear Creek Hop
M:2/4
L:1/16
Z:jason
B: Junior Daugherty, 1949
K:A
(3(efg) |: [a2A2][g2A2] [f2A2][e2A2] | efed [e2c2][e2A2] | efed [e2c2][e2B2] | efed [e2c2][e2A2] | 
[a2A2][g2A2] [f2A2][e2A2] | efed cBAB | cde2 f2g2 | [A6a6] z2 :|
|: "+"[e2A2][e2A2] "+"[e2A2][e2A2] | "+"[e2A2][e2A2] [e2c2][e2A2] | "+"[e2A2][e2A2] [f2d2][e2A2] | "+"[e2A2][e2A2] [e2c2][e2A2] |
"+"[e2A2][e2A2]"+"[e2A2][e2A2] | "+"[e2A2][e2A2] [e2c2][e2A2] | [ec][ed][e2e2] [f2A2][g2A2] | [a2A2][aA][bA] [a2A2]z2 :|

